T: What It Is
M: 6/8
L: 1/8
K: Amaj
AB |: cBA AGA | EAD FAB | cBA AGA | eAd fga | cBA AGA |!EAD F2A |1 BAB EBF | BGB A3 :|2 BAB EBF | BGB AAB ||!|: cBA AGA | EAc DAd | cBA CAc | ecA fdB |!ecA fdB | ecA GAB | BAB EBF | BGB A3 :|
